remix/Design/layout-4-fill.svg

<svg viewBox="0 0 24 24" fill="currentColor" xmlns="http://www.w3.org/2000/svg"><path d="M11 13V21H4C3.44772 21 3 20.5523 3 20V13H11ZM13 3H20C20.5523 3 21 3.44772 21 4V20C21 20.5523 20.5523 21 20 21H13V3ZM3 4C3 3.44772 3.44772 3 4 3H11V11H3V4Z"/></svg>

<svg viewBox="0 0 24 24" xmlns="http://www.w3.org/2000/svg"><path fill="none" d="M0 0h24v24H0Z"/><path d="M11 13v8H4v0c-.56 0-1-.45-1-1v-7h8Zm2-10h7v0c.55 0 1 .44 1 1v16 0c0 .55-.45 1-1 1h-7V3ZM3 4v0c0-.56.44-1 1-1h7v8H3V4Z"/></svg>
